gama.ui.shared/icons_svg/dark/agents/agents.submenu.svg

<svg height="25" viewBox="-706.997 -3602.725 25 25" width="25" xmlns="http://www.w3.org/2000/svg"><g fill="none"><path d="m-699.3007-3602.225h12.9524c2.127 0 3.8513 1.7244 3.8513 3.8514v13.1089c0 2.1271-1.7243 3.8514-3.8513 3.8514h-12.9524c-2.127 0-3.8513-1.7243-3.8513-3.8514v-13.1089c0-2.127 1.7243-3.8514 3.8513-3.8514z" fill="#666"/><path d="m-699.3007-3602.225h12.9524c2.127 0 3.8513 1.7244 3.8513 3.8514v13.1089c0 2.1271-1.7243 3.8514-3.8513 3.8514h-12.9524c-2.127 0-3.8513-1.7243-3.8513-3.8514v-13.1089c0-2.127 1.7243-3.8514 3.8513-3.8514z" stroke="#fff" stroke-linecap="round" stroke-linejoin="round" stroke-width=".25"/><path d="m-702.6457-3599.0364h12.9524c2.1271 0 3.8514 1.7244 3.8514 3.8514v13.109c0 2.127-1.7243 3.851-3.8514 3.851h-12.9524c-2.127 0-3.8513-1.724-3.8513-3.851v-13.109c0-2.127 1.7243-3.8514 3.8513-3.8514z" fill="#666"/><path d="m-702.6457-3599.0364h12.9524c2.1271 0 3.8514 1.7244 3.8514 3.8514v13.109c0 2.127-1.7243 3.851-3.8514 3.851h-12.9524c-2.127 0-3.8513-1.724-3.8513-3.851v-13.109c0-2.127 1.7243-3.8514 3.8513-3.8514z" stroke="#fff" stroke-linecap="round" stroke-linejoin="round" stroke-width=".25"/><path d="m-699.82526-3589.1193-3.04144 1.5656c-.3746.1927-.6101.5787-.6101 1.0003v.585c0 .6214.5037 1.125 1.12505 1.125.20715 0 .375.1679.375.375s-.16785.375-.375.375c-1.03555 0-1.87505-.8396-1.87505-1.875v-.585c0-.7023.39245-1.3456 1.0169-1.6671l2.5183-1.2965c-.8038-.7006-1.2852-1.722-1.2852-2.8264 0-2.071 1.6789-3.75 3.75-3.75 1.25745 0 2.4099.624 3.1035 1.6444.1164.1713.0719.4046-.0994.521s-.4045.072-.5209-.0994c-.5554-.8171-1.4768-1.316-2.4832-1.316-1.65685 0-3 1.3432-3 3 0 1.0588.5526 2.0218 1.4402 2.5634.1768.1077.2327.3384.12486.5153-.04036.0661-.09796.1154-.16352.1454zm3.06941 3.2011-3.06145 1.3915c-.40165.1827-.6595.583-.6595 1.0242v.5341c0 .6214.5037 1.125 1.125 1.125h8.25c.6213 0 1.125-.5036 1.125-1.125v-.5341c0-.4412-.25785-.8415-.6595-1.0242l-3.06145-1.3915c-.46695.2087-.98445.3248-1.52905.3248s-1.0621-.1161-1.52905-.3248zm-.77935-.4698c-.8775-.686-1.4416-1.755-1.4416-2.9554 0-2.071 1.6789-3.75 3.75-3.75s3.75 1.679 3.75 3.75c0 1.2004-.5641 2.2694-1.4416 2.9554l2.5925 1.1786c.66934.3044 1.0991.9716 1.0991 1.7069v.5341c0 1.0354-.8395 1.875-1.875 1.875h-8.25c-1.0355 0-1.875-.8396-1.875-1.875v-.5341c0-.7353.42976-1.4025 1.0991-1.7069zm2.3084.0446c1.65685 0 3-1.3431 3-3 0-1.6568-1.34315-3-3-3s-3 1.3432-3 3c0 1.6569 1.34315 3 3 3z" fill="#c0e0ff"/></g></svg>

<?xml version="1.0" encoding="UTF-8" standalone="no"?>
<!DOCTYPE svg PUBLIC "-//W3C//DTD SVG 1.1//EN" "http://www.w3.org/Graphics/SVG/1.1/DTD/svg11.dtd">
<svg xmlns="http://www.w3.org/2000/svg" xmlns:xl="http://www.w3.org/1999/xlink" version="1.1" xmlns:dc="http://purl.org/dc/elements/1.1/" viewBox="-706.997 -3602.725 25 25" width="25" height="25">
  <defs/>
  <g id="SOURCES" stroke-opacity="1" fill="none" stroke="none" fill-opacity="1" stroke-dasharray="none">
    <title>SOURCES</title>
    <g id="SOURCES_Dark">
      <title>Dark</title>
      <g id="Graphic_11571">
        <path d="M -699.3007 -3602.225 L -686.3483 -3602.225 C -684.2213 -3602.225 -682.497 -3600.5006 -682.497 -3598.3736 L -682.497 -3585.2647 C -682.497 -3583.1376 -684.2213 -3581.4133 -686.3483 -3581.4133 L -699.3007 -3581.4133 C -701.4277 -3581.4133 -703.152 -3583.1376 -703.152 -3585.2647 L -703.152 -3598.3736 C -703.152 -3600.5006 -701.4277 -3602.225 -699.3007 -3602.225 Z" fill="#666"/>
        <path d="M -699.3007 -3602.225 L -686.3483 -3602.225 C -684.2213 -3602.225 -682.497 -3600.5006 -682.497 -3598.3736 L -682.497 -3585.2647 C -682.497 -3583.1376 -684.2213 -3581.4133 -686.3483 -3581.4133 L -699.3007 -3581.4133 C -701.4277 -3581.4133 -703.152 -3583.1376 -703.152 -3585.2647 L -703.152 -3598.3736 C -703.152 -3600.5006 -701.4277 -3602.225 -699.3007 -3602.225 Z" stroke="white" stroke-linecap="round" stroke-linejoin="round" stroke-width=".25"/>
      </g>
      <g id="Graphic_11570">
        <path d="M -702.6457 -3599.0364 L -689.6933 -3599.0364 C -687.5662 -3599.0364 -685.8419 -3597.312 -685.8419 -3595.185 L -685.8419 -3582.076 C -685.8419 -3579.949 -687.5662 -3578.225 -689.6933 -3578.225 L -702.6457 -3578.225 C -704.7727 -3578.225 -706.497 -3579.949 -706.497 -3582.076 L -706.497 -3595.185 C -706.497 -3597.312 -704.7727 -3599.0364 -702.6457 -3599.0364 Z" fill="#666"/>
        <path d="M -702.6457 -3599.0364 L -689.6933 -3599.0364 C -687.5662 -3599.0364 -685.8419 -3597.312 -685.8419 -3595.185 L -685.8419 -3582.076 C -685.8419 -3579.949 -687.5662 -3578.225 -689.6933 -3578.225 L -702.6457 -3578.225 C -704.7727 -3578.225 -706.497 -3579.949 -706.497 -3582.076 L -706.497 -3595.185 C -706.497 -3597.312 -704.7727 -3599.0364 -702.6457 -3599.0364 Z" stroke="white" stroke-linecap="round" stroke-linejoin="round" stroke-width=".25"/>
      </g>
      <g id="Graphic_11568">
        <path d="M -699.82526 -3589.1193 L -702.8667 -3587.5537 C -703.2413 -3587.361 -703.4768 -3586.975 -703.4768 -3586.5534 L -703.4768 -3585.9684 C -703.4768 -3585.347 -702.9731 -3584.8434 -702.35175 -3584.8434 C -702.1446 -3584.8434 -701.97675 -3584.6755 -701.97675 -3584.4684 C -701.97675 -3584.2613 -702.1446 -3584.0934 -702.35175 -3584.0934 C -703.3873 -3584.0934 -704.2268 -3584.933 -704.2268 -3585.9684 L -704.2268 -3586.5534 C -704.2268 -3587.2557 -703.83435 -3587.899 -703.2099 -3588.2205 L -700.6916 -3589.517 C -701.4954 -3590.2176 -701.9768 -3591.239 -701.9768 -3592.3434 C -701.9768 -3594.4144 -700.2979 -3596.0934 -698.2268 -3596.0934 C -696.96935 -3596.0934 -695.8169 -3595.4694 -695.1233 -3594.449 C -695.0069 -3594.2777 -695.0514 -3594.0444 -695.2227 -3593.928 C -695.394 -3593.8116 -695.6272 -3593.856 -695.7436 -3594.0274 C -696.299 -3594.8445 -697.2204 -3595.3434 -698.2268 -3595.3434 C -699.88365 -3595.3434 -701.2268 -3594.0002 -701.2268 -3592.3434 C -701.2268 -3591.2846 -700.6742 -3590.3216 -699.7866 -3589.78 C -699.6098 -3589.6723 -699.5539 -3589.4416 -699.66174 -3589.2647 C -699.7021 -3589.1986 -699.7597 -3589.1493 -699.82526 -3589.1193 Z M -696.75585 -3585.9182 L -699.8173 -3584.5267 C -700.21895 -3584.344 -700.4768 -3583.9437 -700.4768 -3583.5025 L -700.4768 -3582.9684 C -700.4768 -3582.347 -699.9731 -3581.8434 -699.3518 -3581.8434 L -691.1018 -3581.8434 C -690.4805 -3581.8434 -689.9768 -3582.347 -689.9768 -3582.9684 L -689.9768 -3583.5025 C -689.9768 -3583.9437 -690.23465 -3584.344 -690.6363 -3584.5267 L -693.69775 -3585.9182 C -694.1647 -3585.7095 -694.6822 -3585.5934 -695.2268 -3585.5934 C -695.7714 -3585.5934 -696.2889 -3585.7095 -696.75585 -3585.9182 Z M -697.5352 -3586.388 C -698.4127 -3587.074 -698.9768 -3588.143 -698.9768 -3589.3434 C -698.9768 -3591.4144 -697.2979 -3593.0934 -695.2268 -3593.0934 C -693.1557 -3593.0934 -691.4768 -3591.4144 -691.4768 -3589.3434 C -691.4768 -3588.143 -692.0409 -3587.074 -692.9184 -3586.388 L -690.3259 -3585.2094 C -689.65656 -3584.905 -689.2268 -3584.2378 -689.2268 -3583.5025 L -689.2268 -3582.9684 C -689.2268 -3581.933 -690.0663 -3581.0934 -691.1018 -3581.0934 L -699.3518 -3581.0934 C -700.3873 -3581.0934 -701.2268 -3581.933 -701.2268 -3582.9684 L -701.2268 -3583.5025 C -701.2268 -3584.2378 -700.79704 -3584.905 -700.1277 -3585.2094 L -697.5352 -3586.388 Z M -695.2268 -3586.3434 C -693.56995 -3586.3434 -692.2268 -3587.6865 -692.2268 -3589.3434 C -692.2268 -3591.0002 -693.56995 -3592.3434 -695.2268 -3592.3434 C -696.88365 -3592.3434 -698.2268 -3591.0002 -698.2268 -3589.3434 C -698.2268 -3587.6865 -696.88365 -3586.3434 -695.2268 -3586.3434 Z" fill="#c0e0ff"/>
      </g>
    </g>
  </g>
</svg>
